X:1
T:Quand il disait  ses amis - I165
C:J. Akepsimas
M:C|
L:1/4
K:G
"Sol"D2 DD|D3/B,/ "Do"CE|"Re"D4-|D4|:"Sol"B,2 B,B,|C3 C|D2 D2|[1C4:|[2C3 D|"Sol"DD DE|
"Fa"=F3 F|"Do"ED CD|"Re"D4-|DD GA|"Sol"BB B"Re"A|"Mim"GG AB|"Do"c3 c|"Sol"cB AG|"Fa"A4-|"Re"A4||
"Sol"BB B"Re"A|"Mim"GG G"Sim"F|"Do"EG GE|"Re"D4|"Sol"BB B"Re"A|"Mim"GG G"Sim"F|"Do"EG "Re"GF|"Sol"G4||
